img/icons/mono/about-grant.svg

<svg width="32" height="32" viewBox="0 0 32 32" fill="none" xmlns="http://www.w3.org/2000/svg">
<path d="M16 3C17.8007 3 19.561 3.53819 21.0583 4.54651C22.5556 5.55484 23.7225 6.98801 24.4117 8.66479C25.1008 10.3416 25.2811 12.1867 24.9298 13.9667C24.5785 15.7468 23.7113 17.3819 22.438 18.6652C21.1647 19.9486 19.5424 20.8225 17.7762 21.1766C16.0101 21.5307 14.1794 21.349 12.5158 20.6544C10.8521 19.9599 9.43015 18.7837 8.42972 17.2746C7.42928 15.7656 6.8953 13.9914 6.8953 12.1765C6.8953 9.74272 7.85454 7.40865 9.562 5.68773C11.2695 3.9668 13.5853 3 16 3V3ZM15.0592 11.2588L12.9651 11.5494L14.4825 12.9106L14.1184 14.8529L16 13.9353L17.8816 14.8529L17.5175 12.9106L19.0349 11.5494L16.9408 11.2588L16 9.5L15.0592 11.2588ZM22.4947 18.6C21.1524 19.9839 19.4103 20.9047 17.5175 21.2306L20.5524 29L22.8285 27.0882L26 27.4094L22.4947 18.6ZM6 27.4706L9.17147 27.1494L11.4476 29L14.4825 21.2306C12.5897 20.9047 10.8476 19.9839 9.50531 18.6L6 27.4706Z" stroke="black" stroke-width="2" stroke-linecap="round" stroke-linejoin="round"/>
</svg>

<svg width="32" height="32" fill="none" xmlns="http://www.w3.org/2000/svg"><path d="M16 3c1.8 0 3.561.538 5.058 1.547a9.162 9.162 0 013.354 4.118 9.24 9.24 0 01.518 5.302 9.199 9.199 0 01-2.492 4.698 9.083 9.083 0 01-4.662 2.512 9.038 9.038 0 01-5.26-.523 9.12 9.12 0 01-4.086-3.38 9.228 9.228 0 01-1.535-5.098c0-2.433.96-4.767 2.667-6.488A9.069 9.069 0 0116 3v0zm-.94 8.259l-2.095.29 1.518 1.362-.365 1.942L16 13.935l1.882.918-.365-1.942 1.518-1.362-2.094-.29L16 9.5l-.94 1.759zm7.435 7.341a9.082 9.082 0 01-4.978 2.63L20.552 29l2.276-1.912L26 27.41l-3.505-8.81zM6 27.47l3.171-.32L11.448 29l3.034-7.77a9.081 9.081 0 01-4.977-2.63L6 27.47z" stroke="#000" stroke-width="2" stroke-linecap="round" stroke-linejoin="round"/></svg>
